X:1
T:Title
%%score { ( 1 3 ) | 2 }
L:1/8
Q:1/4=110
M:4/4
K:Db
V:1 treble nm="Grand Piano"
V:3 treble 
V:2 bass 
V:1
 [FA]>[GB] [FA]>[DF] [Fd]2 F2 | A4 G4 | [EG]>[FA] [EG]>[CE] [Gc]2 [CGB]2 | [FA]6 z2 | %4
w: John~R.~Sweney * * * * *||||
 [FA]2 [DF]2 [Fd]2 [FA]2 | [GB]2 [Bd]2 [Ac]2 B2 | A>A =G>A B2 [E_Gc]2 | [DFd]6 z2 | [Ge]4 [Gc]4 | %9
w: |||||
 [Af]>[Ge] [Fd]>[GB] [FA]2 [DF]2 | [DF]>[CE] [CE]>[DF] [CEG]2 [CGB]2 | [GB]4 z4 | %12
w: |||
 [FA]4 [DF]2 [EG]2 | [FA]>[Fd] [Fd]>[Ac] c2 B2 | A>A =G>A B2 [E_Gc]2 | [DFd]6 z2 |] %16
w: ||||
V:2
 [D,D]>[D,D] [D,D]>[D,A,] [D,A,]2 [D,A,D]2 | [E,A,C]4 [E,A,C]4 | %2
 [A,,A,]>[A,,A,] [A,,A,]>[A,,A,] [A,,A,]2 A,,2 | [D,D]6 z2 | [D,D]2 [D,A,]2 [D,A,]2 [D,D]2 | %5
 [G,D]2 [G,D]2 [G,D]2[K:treble] [G,DG]2 | [A,DF]>[A,DF] [A,_F]>[A,=F] [A,EG]2[K:bass] A,,2 | %7
 D,6 z2 | [A,C]4 [A,E]4 | [D,D]>[D,A,] [D,A,]>[D,D] [D,D]2 [D,A,]2 | %10
 [A,,A,]>[A,,A,] [A,,A,]>[A,,A,] A,,2 A,,2 | D,>D, D,>D, [D,D]4 | [D,D]4 [D,A,]2 [D,A,]2 | %13
 [D,D]>[D,A,] [D,A,]>[F,D][K:treble] [G,DG]4 | [A,DF]>[A,DF] [A,_F]>[A,=F] [A,EG]2[K:bass] A,,2 | %15
 D,6 z2 |] %16
V:3
 x8 | x8 | x8 | x8 | x8 | x8 | x8 | x8 | x8 | x8 | x8 | D>D D>D [FA]4 | x8 | x8 | x8 | x8 |] %16

